icons/lines/mobile-programming.svg

<svg xmlns="http://www.w3.org/2000/svg" width="24" height="24" viewBox="0 0 24 24" fill="none" stroke="currentColor" stroke-width="2" stroke-linecap="round" stroke-linejoin="round" >
  <path d="M8.92969 2L8.95969 3.53003C8.97969 4.34003 9.64969 5 10.4597 5H13.4797C14.3097 5 14.9797 4.32 14.9797 3.5V2"/>
  <path d="M17 17L15 19L17 21" stroke-miterlimit="10"/>
  <path d="M20 17L22 19L20 21" stroke-miterlimit="10"/>
  <path d="M13 22H8C4.5 22 3 20 3 17V7C3 4 4.5 2 8 2H16C19.5 2 21 4 21 7V14" stroke-miterlimit="10"/>
  </svg>

<svg xmlns="http://www.w3.org/2000/svg" width="24" height="24" viewBox="0 0 24 24" fill="none" stroke="currentColor" stroke-width="2" stroke-linecap="round" stroke-linejoin="round">
  <path d="M13 22H8c-3.5 0-5-2-5-5V7c0-3 1.5-5 5-5h8c3.5 0 5 2 5 5v7" />
  <path d="m17 17-2 2 2 2" />
  <path d="m20 17 2 2-2 2" />
  <path d="m8.93 2 .03 1.53A1.51 1.51 0 0 0 10.46 5h3.02a1.504 1.504 0 0 0 1.5-1.5V2" />
</svg>
